dist/img/ic-insta.svg

<svg width="18" height="18" viewBox="0 0 18 18" fill="none" xmlns="http://www.w3.org/2000/svg">
<path d="M17.2015 5.61276C17.1922 4.91849 17.0623 4.23113 16.8174 3.58142C16.6051 3.03339 16.2807 2.53569 15.8651 2.1201C15.4496 1.70451 14.9518 1.38019 14.4038 1.16784C13.7625 0.927083 13.0849 0.796901 12.4 0.782839C11.5181 0.743422 11.2386 0.732422 9.00007 0.732422C6.76157 0.732422 6.47465 0.732422 5.59923 0.782839C4.91463 0.797005 4.23738 0.927184 3.59631 1.16784C3.0482 1.38004 2.55042 1.70431 2.13481 2.11992C1.71921 2.53552 1.39493 3.03331 1.18273 3.58142C0.941493 4.22229 0.811594 4.89969 0.798648 5.58434C0.759231 6.46709 0.747314 6.74667 0.747314 8.98517C0.747314 11.2237 0.747314 11.5097 0.798648 12.386C0.812398 13.0717 0.941648 13.7482 1.18273 14.3908C1.39529 14.9387 1.7198 15.4363 2.13555 15.8517C2.55129 16.2671 3.04912 16.5913 3.59723 16.8034C4.23655 17.0539 4.91391 17.1934 5.60015 17.2159C6.4829 17.2553 6.76248 17.2673 9.00098 17.2673C11.2395 17.2673 11.5264 17.2673 12.4018 17.2159C13.0867 17.2024 13.7643 17.0726 14.4056 16.8318C14.9535 16.6192 15.4511 16.2948 15.8667 15.8793C16.2822 15.4637 16.6066 14.9661 16.8192 14.4183C17.0603 13.7766 17.1896 13.1001 17.2033 12.4135C17.2427 11.5317 17.2546 11.2521 17.2546 9.01267C17.2528 6.77417 17.2528 6.49001 17.2015 5.61276ZM8.99457 13.2183C6.6534 13.2183 4.75681 11.3218 4.75681 8.98059C4.75681 6.63942 6.6534 4.74284 8.99457 4.74284C10.1185 4.74284 11.1964 5.18931 11.9911 5.98405C12.7858 6.77878 13.2323 7.85667 13.2323 8.98059C13.2323 10.1045 12.7858 11.1824 11.9911 11.9771C11.1964 12.7719 10.1185 13.2183 8.99457 13.2183ZM13.401 5.57425C12.8537 5.57425 12.4128 5.13242 12.4128 4.58609C12.4128 4.45638 12.4384 4.32794 12.488 4.20811C12.5376 4.08827 12.6104 3.97939 12.7021 3.88767C12.7938 3.79596 12.9027 3.7232 13.0225 3.67357C13.1424 3.62393 13.2708 3.59838 13.4005 3.59838C13.5302 3.59838 13.6587 3.62393 13.7785 3.67357C13.8983 3.7232 14.0072 3.79596 14.0989 3.88767C14.1907 3.97939 14.2634 4.08827 14.313 4.20811C14.3627 4.32794 14.3882 4.45638 14.3882 4.58609C14.3882 5.13242 13.9464 5.57425 13.401 5.57425Z" fill="#CCB69F"/>
</svg>

<svg width="18" height="18" viewBox="0 0 18 18" xmlns="http://www.w3.org/2000/svg"><path d="M17.201 5.613a5.986 5.986 0 00-.384-2.032 4.225 4.225 0 00-2.413-2.413A6.055 6.055 0 0012.4.783c-.882-.04-1.161-.05-3.4-.05-2.238 0-2.525 0-3.4.05a6.056 6.056 0 00-2.004.385A4.223 4.223 0 001.183 3.58a6.008 6.008 0 00-.384 2.003c-.04.883-.052 1.163-.052 3.401 0 2.239 0 2.525.052 3.401a6.03 6.03 0 00.384 2.005 4.226 4.226 0 002.414 2.412c.64.25 1.317.39 2.003.413.883.04 1.162.051 3.401.051s2.525 0 3.4-.051a6.039 6.039 0 002.005-.384 4.232 4.232 0 002.413-2.414 6.04 6.04 0 00.384-2.004c.04-.882.052-1.162.052-3.401-.002-2.239-.002-2.523-.053-3.4zm-8.206 7.605a4.237 4.237 0 01-4.238-4.237 4.237 4.237 0 114.238 4.237zM13.4 5.574a.987.987 0 11-.003-1.973.987.987 0 01.003 1.973z"/></svg>
